X:1
T:Title
%%score ( 1 2 ) ( 3 4 )
L:1/8
M:2/4
K:Eb
V:1 treble nm="Bright Piano"
V:2 treble 
V:3 bass nm="Bright Piano"
V:4 bass 
V:1
 z2 z[Q:1/4=84] B, | [B,E]2 [B,F][B,F] | G>F [B,E][B,E] | A-[DA] [EG]>[EG] | [DF]3 [DF] | %5
 [EB]2 [EA][DA] | [EG]2 [CA][CF] | B,-[B,D] [EG]>[DF] | [B,E]2 z B, | [B,E]2 [B,F]>[B,E] | %10
 [B,E]2 [B,D][B,D] | B,-[B,E] [B,F]>[B,G] | [B,E]3 E | [Ee]2 [Ed][Ec] | B>A [EG][EG] | %15
 [DF]2 [Fc]>[FA] | [EG]3 [EG] | [Ee]2 [Ed][Ec] | B>A [EG][EG] | [EF]2 [DB]>[B,D] | %20
[M:3/8] [B,E]2 z |] %21
V:2
 x4 | x4 | B,2 z2 | .E2 z2 | x4 | x4 | x4 | .E2 z2 | x4 | x4 | x4 | .D2 z2 | x4 | x4 | E2 z2 | x4 | %16
 x4 | x4 | E2 z2 | x4 |[M:3/8] x3 |] %21
V:3
 z2 z B, | [E,G,]2 [E,A,][E,A,] | B,>A, [E,G,][E,G,] | [F,B,]2 [G,B,]>[=A,B,] | z2 z B, | %5
 [G,B,]2 [F,B,][F,B,] | [E,B,]2 [A,,A,][A,,A,] | .G,2 z2 | [E,G,]2 z B, | [E,G,]2 [D,A,]>[E,G,] | %10
 [B,,G,]2 [B,,F,][B,,F,] | .F,2 z2 | [E,G,]3 [G,B,] | [A,C]2 [A,B,]A, | G,>C [E,B,][G,B,] | %15
 B,2[K:treble] [B,D]>[B,D] | C3 C | [A,C]2[K:bass] [A,B,]A, | G,>C [E,B,][E,B,] | %19
 [B,,B,]2 [B,,B,]>[B,,A,] |[M:3/8] [E,G,]2 z |] %21
V:4
 x4 | x4 | E,2 z2 | x4 | B,3 z/ A,/ | x4 | x4 | B,,-[B,,F,] [B,,B,]>[B,,A,] | x4 | x4 | x4 | %11
 B,,-[B,,G,] [B,,A,]>[B,,B,] | x4 | x4 | E,2 z2 | x2[K:treble] x2 | x4 | x2[K:bass] x2 | E,2 z2 | %19
 x4 |[M:3/8] x3 |] %21

